X:2809
T:Euan's Jig
P:A Trip to St. Andrews
C:Nath. Gow
R:Jig (8x32)
B:RSCDS 28-9
Z:Anselm Lingnau <anselm@strathspey.org>
M:6/8
L:1/8
K:A
|:"A"A2A Ace|"D"agf "A"ecA|A2A Ace|"E7"BGE "A"ECA,|
  "A"A2A Ace|"D"agf "A"ecA|"D"dfd "A"ecA|"E7"EBG "A"A3:|
|:"A"e2a ac'a|"E7"bd'b bge|"A"e2a ac'a|"E7"d'bg "A"a3|
  "A"e2a ac'a|"E"bd'b bge|"E7"bd'b "A"ac'a|"E7"d'bg "A"a3:|

